src/icons/service-bamboo.svg

<svg enable-background="new 0 0 12 14" viewBox="0 0 12 14" xmlns="http://www.w3.org/2000/svg" xmlns:xlink="http://www.w3.org/1999/xlink"><linearGradient id="a"><stop offset="0" stop-color="#0052cc"/><stop offset="1" stop-color="#2684ff"/></linearGradient><linearGradient id="b" gradientTransform="matrix(5.9 0 0 -6 1465.2001 2043.8998)" gradientUnits="userSpaceOnUse" x1="-247.822" x2="-247.822" xlink:href="#a" y1="340.3031" y2="338.9458"/><linearGradient id="c" gradientTransform="matrix(6 0 0 -6 1495 2038)" gradientUnits="userSpaceOnUse" x1="-248.6667" x2="-248.6667" xlink:href="#a" y1="339.3198" y2="337.9624"/><g><path d="m11.6 7.9h-2.9c-.2 0-.3.1-.4.3-.2 1.2-1.2 2-2.3 2l.8 3.6c2.8-.4 5-2.7 5.2-5.5 0-.2-.2-.3-.4-.4z" fill="#2684ff"/><path d="m6.6 7.9 4.1-3.6c.2-.1.2-.4 0-.5l-4.1-3.6c-.1-.2-.4-.1-.5 0s-.1.2-.1.3v7.1c0 .2.2.4.4.4.1-.1.2-.1.2-.1z" fill="#2684ff"/><path d="m.1 8.7c.4 3 2.9 5.2 5.9 5.2v-3.6c-1.3 0-2.4-1.1-2.4-2.4z" fill="url(#b)"/><path d="m0 7.9 3.6.1c0-1.3 1.1-2.4 2.4-2.4l-.8-3.6c-2.9.4-5.1 2.9-5.2 5.9" fill="url(#c)"/></g></svg>

<?xml version="1.0" encoding="utf-8"?>
<!-- Generator: Adobe Illustrator 20.1.0, SVG Export Plug-In . SVG Version: 6.00 Build 0)  -->
<svg version="1.1" id="Layer_1" xmlns="http://www.w3.org/2000/svg" xmlns:xlink="http://www.w3.org/1999/xlink" x="0px" y="0px"
	 viewBox="0 0 12 14" style="enable-background:new 0 0 12 14;" xml:space="preserve">
<style type="text/css">
	.st0{fill:#2684FF;}
	.st1{fill:url(#Path_4_);}
	.st2{fill:url(#Path_5_);}
</style>
<title>HDL/Icon/Standard/Service/bamboo</title>
<desc>Created with Sketch.</desc>
<g id="Colors">
	<g id="Service-icons" transform="translate(-119.000000, -453.000000)">
		<g id="Bamboo_1_" transform="translate(100.000000, 435.000000)">
			<g id="HDL_x2F_Icon_x2F_Standard_x2F_Service_x2F_bamboo" transform="translate(19.000000, 18.000000)">
				<g id="Bamboo">
					<path id="Path" class="st0" d="M11.6,7.9H8.7C8.5,7.9,8.4,8,8.3,8.2c-0.2,1.2-1.2,2-2.3,2l0.8,3.6c2.8-0.4,5-2.7,5.2-5.5
						C12,8.1,11.8,8,11.6,7.9z"/>
					<path id="Path_1_" class="st0" d="M6.6,7.9l4.1-3.6c0.2-0.1,0.2-0.4,0-0.5L6.6,0.2C6.5,0,6.2,0.1,6.1,0.2S6,0.4,6,0.5v7.1
						C6,7.8,6.2,8,6.4,8C6.5,7.9,6.6,7.9,6.6,7.9z"/>
					
						<linearGradient id="Path_4_" gradientUnits="userSpaceOnUse" x1="-247.822" y1="340.3031" x2="-247.822" y2="338.9458" gradientTransform="matrix(5.9 0 0 -6 1465.2001 2043.8998)">
						<stop  offset="0" style="stop-color:#0052CC"/>
						<stop  offset="1" style="stop-color:#2684FF"/>
					</linearGradient>
					<path id="Path_2_" class="st1" d="M0.1,8.7c0.4,3,2.9,5.2,5.9,5.2v-3.6c-1.3,0-2.4-1.1-2.4-2.4L0.1,8.7z"/>
					
						<linearGradient id="Path_5_" gradientUnits="userSpaceOnUse" x1="-248.6667" y1="339.3198" x2="-248.6667" y2="337.9624" gradientTransform="matrix(6 0 0 -6 1495 2038)">
						<stop  offset="0" style="stop-color:#0052CC"/>
						<stop  offset="1" style="stop-color:#2684FF"/>
					</linearGradient>
					<path id="Path_3_" class="st2" d="M0,7.9L3.6,8c0-1.3,1.1-2.4,2.4-2.4L5.2,2C2.3,2.4,0.1,4.9,0,7.9"/>
				</g>
			</g>
		</g>
	</g>
</g>
</svg>
